icons-rebrand/svg/create-a-group-bold.svg

<svg width="32" height="32" viewBox="0 0 32 32" xmlns="http://www.w3.org/2000/svg">
<path d="M11 10C11 9.44772 11.4477 9 12 9L24 9C24.5523 9 25 9.44772 25 10C25 10.5523 24.5523 11 24 11L12 11C11.4477 11 11 10.5523 11 10Z" fill="black"/>
<path d="M12 15C11.4477 15 11 15.4477 11 16C11 16.5523 11.4477 17 12 17L24 17C24.5523 17 25 16.5523 25 16C25 15.4477 24.5523 15 24 15L12 15Z" fill="black"/>
<path d="M7.5 11.5047C8.32843 11.5047 9 10.8331 9 10.0047C9 9.17623 8.32843 8.50465 7.5 8.50465C6.67157 8.50465 6 9.17623 6 10.0047C6 10.8331 6.67157 11.5047 7.5 11.5047Z" fill="black"/>
<path d="M9 16.0047C9 16.8331 8.32843 17.5047 7.5 17.5047C6.67157 17.5047 6 16.8331 6 16.0047C6 15.1762 6.67157 14.5047 7.5 14.5047C8.32843 14.5047 9 15.1762 9 16.0047Z" fill="black"/>
<path fill-rule="evenodd" clip-rule="evenodd" d="M2 8C2 5.23858 4.23858 3 7 3H25C27.7614 3 30 5.23858 30 8V18C30 20.7614 27.7614 23 25 23H7C4.23858 23 2 20.7614 2 18V8ZM7 5C5.34315 5 4 6.34315 4 8V18C4 19.6569 5.34315 21 7 21H25C26.6569 21 28 19.6569 28 18V8C28 6.34315 26.6569 5 25 5H7Z" fill="black"/>
<path d="M11 27C11 26.4477 11.4477 26 12 26L24 26C24.5523 26 25 26.4477 25 27C25 27.5523 24.5523 28 24 28L12 28C11.4477 28 11 27.5523 11 27Z" fill="black"/>
<path d="M7.5 28.5047C8.32843 28.5047 9 27.8331 9 27.0047C9 26.1762 8.32843 25.5047 7.5 25.5047C6.67157 25.5047 6 26.1762 6 27.0047C6 27.8331 6.67157 28.5047 7.5 28.5047Z" fill="black"/>
</svg>

<svg width="32" height="32" viewBox="0 0 32 32" xmlns="http://www.w3.org/2000/svg"><path d="M11 10a1 1 0 0 1 1-1h12a1 1 0 1 1 0 2H12a1 1 0 0 1-1-1ZM12 15a1 1 0 1 0 0 2h12a1 1 0 1 0 0-2H12ZM7.5 11.505a1.5 1.5 0 1 0 0-3 1.5 1.5 0 0 0 0 3ZM9 16.005a1.5 1.5 0 1 1-3 0 1.5 1.5 0 0 1 3 0Z"/><path d="M2 8a5 5 0 0 1 5-5h18a5 5 0 0 1 5 5v10a5 5 0 0 1-5 5H7a5 5 0 0 1-5-5V8Zm5-3a3 3 0 0 0-3 3v10a3 3 0 0 0 3 3h18a3 3 0 0 0 3-3V8a3 3 0 0 0-3-3H7ZM11 27a1 1 0 0 1 1-1h12a1 1 0 1 1 0 2H12a1 1 0 0 1-1-1ZM7.5 28.505a1.5 1.5 0 1 0 0-3 1.5 1.5 0 0 0 0 3Z"/></svg>
